X:1044
M:C
L:1/8
Q:1/4=120
K:D
g|fa```````da b/a/g/f/ ad |g<b``````a>f e/e/e  eg|fa`````da b/a/g/f/ ad |gb```````af  d/d/d da|
  b/a/g/f/ da ba```````gf |g<b``````a>f e/e/e Tef|d>f````ec d>B``````AF |G<B``````A>F D/D/D D|]

